.local/share/icons/Gruvbox-Plus-Dark/actions/symbolic/color-select-symbolic.svg

<svg width="16" height="16" version="1.1" xmlns="http://www.w3.org/2000/svg">
  <defs>
    <style id="current-color-scheme" type="text/css">.ColorScheme-Text { color:#ebdbb2; } .ColorScheme-Highlight { color:#458588; }</style>
  </defs>
  <path class="ColorScheme-Text" d="m13.5 1a1.5 1.5 0 0 0-1.061 0.4395l-2.421 2.578-2.018-2.018-1.5 1.5 1.5 1.5-7 7v3h3l7-7 1.5 1.5 1.5-1.5-1.988-1.988 2.554-2.451-4e-3 -0.0039a1.5 1.5 0 0 0 0.438-1.057 1.5 1.5 0 0 0-1.5-1.5zm-4.5 5 1 1-7 7-1-1z" fill="currentColor"/>
</svg>

<svg xmlns="http://www.w3.org/2000/svg" width="16" height="16" version="1.1">
 <path style="fill:#ebdbb2" d="M 13.5,1 A 1.5,1.5 0 0 0 12.439,1.4395 L 10.018,4.0176 8,2 6.5,3.5 8,5 1,12 V 15 H 4 L 11,8 12.5,9.5 14,8 12.012,6.0117 14.566,3.5605 14.562,3.5566 A 1.5,1.5 0 0 0 15,2.5 1.5,1.5 0 0 0 13.5,1 Z M 9,6 10,7 3,14 2,13 Z"/>
</svg>
